X: 3
T: The Butcher's Row (R-113)
I: Butcher's Row, The	R-113	G	reel
M: C|
R: reel
K: G
d|: "G"BcdB G2gf| "C"edef gedc| "G"BcdB G2Bd| "D"cBAG F2D2|
    "G"BcdB G2gf| "C"edef "G"gdef| "C"gfge "G"dedc| "D"BGAF "G"G2d2:|
|:"G"gfga b2b2| "D"abag f2d2| "C"edef "G"gdBd| "D"cBAG F2D2|
"G"GFGB "D"AGAc| "G"BGBd "C"edef| gfge "G"dedc| "D"BGAF "G"G2z2:|

